X:169
T:Robin Adair. JGi.169
M:3/4
L:1/4
Q:3/4=60
S:Joshua Gibbons MS,1823,Tealby,Lincs.
N:Tune to well-known Scottish song
R:waltz
O:Tealby,Lincolnshire
Z:VMP/R.Greig, 2009
K:F
cde|f>ga|cde|”^f2 in MS”f3::aaa|c’>cc|aa(a/g/)|
f>dc|c’b/a/ g/f/|f>gHa|(c/<f/) (d/<f/) (e/<g/)|”^f2 in MS”f3||

